!! 00000] TT[00
!!!OTL: Ga laohan
!!!ARE: Ningxia, Tongxin
!! Ethnic Group: Hui
!! I, 202
!!!SCT: C0491
!!!YEM: Copyright 1995, estate of Helmut Schaffrath.
**kern
*ICvox
*Ivox
*M2/4
*k[b-]
*F:
=1
{8dd
8ff
8dd
8cc
=2
8dd
8ff
8dd
8cc
=3
2dd
=4
4dd
4r}
=5
{8ff
8dd
8dd
8cc
=6
4dd
8cc
8a
=7
2g
=8
4g
4r}
=9
{16a
16cc
4a
8cc
=10
8dd
8ff
8dd
8cc
=11
4a
4cc
=12
4.f
8g}
=13
{8cc
8cc
8cc
8a
=14
4cc
8g
8f
=15
2d
=16
4d
4r}
==
!!!AGN: Jiuqu (aber kein Trinklied!)
!!!ONB: ESAC (Essen Associative Code) Database: CHINA_010
!!!AMT: simple duple
!!!AIN: vox
!!!EED: Helmut Schaffrath
!!!EEV: 1.0
*-
